usr/share/icons/biglinux-icons-material-dark/symbolic/actions/vcs-diff.svg

<svg id="svg17" version="1.1" viewBox="0 0 16 16" xmlns="http://www.w3.org/2000/svg">
    <style id="current-color-scheme" type="text/css">.ColorScheme-Text {
            color:#dedede;
        }</style>
    <path id="path3" class="ColorScheme-Text" d="M 3.5,3 A 1.5,1.5 0 0 0 2,4.5 1.5,1.5 0 0 0 3.5,6 1.5,1.5 0 0 0 5,4.5 1.5,1.5 0 0 0 3.5,3 Z M 3.4882812,4 A 0.5,0.5 0 0 1 3.5,4 0.5,0.5 0 0 1 4,4.5 0.5,0.5 0 0 1 3.5,5 0.5,0.5 0 0 1 3,4.5 0.5,0.5 0 0 1 3.4882812,4 Z" fill="currentColor" stroke-linecap="square"/>
    <path id="path5" class="ColorScheme-Text" d="m3 5v5a2 2 0 0 0 1.9511719 2 2 2 0 0 0 0.0488281 0h3v-1h-3a1 1 0 0 1-1-1v-5z" fill="currentColor" stroke-linecap="square" stroke-width=".845154"/>
    <path id="path7" d="m6.5 8.7929688-0.7070312 0.7070312 2 2-1.6464844 1.646484-0.3535156 0.353516 0.7070312 0.707031 0.3535156-0.353515 2.3535156-2.353516-2.7070312-2.7070312z" class="ColorScheme-Text" fill="currentColor"/>
    <path id="path9" class="ColorScheme-Text" d="m11.5 13a1.5 1.5 0 0 0 1.5-1.5 1.5 1.5 0 0 0-1.5-1.5 1.5 1.5 0 0 0-1.5 1.5 1.5 1.5 0 0 0 1.5 1.5zm0.01172-1a0.5 0.5 0 0 1-0.01172 0 0.5 0.5 0 0 1-0.5-0.5 0.5 0.5 0 0 1 0.5-0.5 0.5 0.5 0 0 1 0.5 0.5 0.5 0.5 0 0 1-0.488281 0.5z" fill="currentColor" stroke-linecap="square"/>
    <path id="path11" class="ColorScheme-Text" d="m12 11v-5a2 2 0 0 0-1.951172-2 2 2 0 0 0-0.04883 0h-2.9999981v1h3.0000001a1 1 0 0 1 1 1v5z" fill="currentColor" stroke-linecap="square" stroke-width=".845154"/>
    <path id="path13" d="m8.5 1.7929688-2.7070312 2.7070312 2.7070312 2.7070312 0.7070312-0.7070312-2-2 2-2-0.7070312-0.7070312z" class="ColorScheme-Text" fill="currentColor"/>
</svg>

<svg xmlns="http://www.w3.org/2000/svg" id="svg17" version="1.1" viewBox="0 0 16 16">
<style id="current-color-scheme" type="text/css">
.ColorScheme-Contrast{color:#dedede}
</style>
<path id="path3" fill="currentColor" stroke-linecap="square" d="M3.5 3A1.5 1.5 0 0 0 2 4.5 1.5 1.5 0 0 0 3.5 6 1.5 1.5 0 0 0 5 4.5 1.5 1.5 0 0 0 3.5 3m-.012 1H3.5a.5.5 0 0 1 .5.5.5.5 0 0 1-.5.5.5.5 0 0 1-.5-.5.5.5 0 0 1 .488-.5" class="ColorScheme-Contrast"/>
<path id="path5" fill="currentColor" stroke-linecap="square" stroke-width=".845" d="M3 5v5a2 2 0 0 0 1.951 2H8v-1H5a1 1 0 0 1-1-1V5z" class="ColorScheme-Contrast"/>
<path id="path7" fill="currentColor" d="m6.5 8.793-.707.707 2 2-1.647 1.646-.353.354.707.707.354-.353L9.207 11.5z" class="ColorScheme-Contrast"/>
<path id="path9" fill="currentColor" stroke-linecap="square" d="M11.5 13a1.5 1.5 0 0 0 1.5-1.5 1.5 1.5 0 0 0-1.5-1.5 1.5 1.5 0 0 0-1.5 1.5 1.5 1.5 0 0 0 1.5 1.5m.012-1H11.5a.5.5 0 0 1-.5-.5.5.5 0 0 1 .5-.5.5.5 0 0 1 .5.5.5.5 0 0 1-.488.5" class="ColorScheme-Contrast"/>
<path id="path11" fill="currentColor" stroke-linecap="square" stroke-width=".845" d="M12 11V6a2 2 0 0 0-1.951-2H7v1h3a1 1 0 0 1 1 1v5z" class="ColorScheme-Contrast"/>
<path id="path13" fill="currentColor" d="M8.5 1.793 5.793 4.5 8.5 7.207l.707-.707-2-2 2-2z" class="ColorScheme-Contrast"/>
</svg>
